X: 58
T:Female Hero (#168), The
M:6/8
L:1/8
S:Aird's Selections 1782-97
K:G
Bdc BGB|cAc BGB|B/2c/2dc BGB|ABG FED|
Bdc BGB|cAc BGB|gfe dcB|A2 d AFD:|
|:BAG GDG|BGB gdc|BAG GDG|cAF ABc|
BAG GDG|BGB g2 d|efg dcB|cAF ABc:||

